!!!!SEGMENT: pl-wn--mus-iii-110-038-cim--001-004_brzowska-jadwiga--le-diane-contredanses-composees-pour-le-piano-fig-4.krn
!!!cenid: 18xx:4438
!!!COM: Brzowska, Jadwiga
!!!COM-rismID: pe50052590
!!!CDT: 1830-1886
!!!CNT: Polish
!!!GTL: Le Diane: Contredanses composées pour le piano
!!!OTL: Fig. 4
!!!OMV: 004
!!!PDT: 1848
!!!AGN: Secular; Contradance
!!!YEC: Copyright 2022 Narodowy Instytut Fryderyka Chopina (https://polishscores.org)
!!!YEM: License CC-BY-4.0 (https://creativecommons.org/licenses/by/4.0)
!!!SMS-siglum: PL-Wn
!!!SMS-shelfmark: Mus.III.110.038 Cim.
!!!SMS-shelfwork: 001-004 G
!!!SMS-variant:
!!!SMS-altvar:
!!!NIFC-rismSourceID:
!!!NIFC-rismChildID:
!!!NIFC-islandoraID: none
!!!URL-pdf-islandora:
!!!URL-scan: https://polona.pl/item-view/59c5dde7-d015-4f2b-b38f-cb13e1316317?page=5
!!!IIIF:
!!!ONB-nifc: UWAGA: Fig. 4 na str. 5
!!!AIN: 2 piano
!!!key: E-
**kern	**kern	**fing	**dynam
*part2	*part1	*part1	*part1
*staff2	*staff1	*	*
*I"PIANO	*I"PIANO	*	*
*mI"Pianoforte	*mI"Pianoforte	*	*
*I'[pf]	*I'[pf]	*	*
*mI'pf	*mI'pf	*	*
*ICklav	*ICklav	*	*
*Ipiano	*Ipiano	*	*
*>[A,B,A]	*>[A,B,A]	*	*
*clefF4	*clefG2	*	*
*k[b-e-a-]	*k[b-e-a-]	*	*
*E-:	*E-:	*	*
*M2/4	*M2/4	*	*
=1	=1	=1	=1
*>A	*>A	*	*
!	!LO:TX:a:t=FIG&colon;4:mod=	!	!
8E-\L 8e-	8g\L 8b- 8ee- 8gg	.	.
16E-\L 16e-	16g\L 16b- 16ee- 16gg	.	.
16E-\JJ 16e-	16g\JJ 16b- 16ee- 16gg	.	.
8E-\L 8e-	8g\L 8b- 8ee- 8gg	.	.
8D\J 8d	8g\J 8bn 8dd 8gg	.	.
=2	=2	=2	=2
8C\L 8c	8g\L 8cc 8ee- 8gg	.	.
16C\L 16c	16g\L 16cc 16ee- 16gg	.	.
16C\JJ 16c	16g\JJ 16cc 16ee- 16gg	.	.
8C\L 8c	8g\L 8cc 8ee- 8gg	.	.
8AA-\J 8A-	8a-\J 8cc 8ee- 8aa-	.	.
=3	=3	=3	=3
8BB-\L 8B-	8b-\L 8ee- 8gg 8bb-	.	.
8BB-\J 8B-	16ee-^^\L 16gg 16ccc	.	.
.	16bb-\JJ	.	.
8BBB-/L 8BB-	16dd^^\LL 16ff 16ccc	.	.
.	16bb-\JJ	.	.
8BBB-/J 8BB-	16dd^^\LL 16ff 16ccc	.	.
.	16bb-\JJ	.	.
=4	=4	=4	=4
4EE-/ 4E-	16ee-^^\LL 16gg 16ccc	.	.
.	16bb-\JJ	.	.
.	16g^^\LL 16b- 16ff	.	.
.	16ee-\JJ	.	.
4E-^^\ 4G 4B- 4e-	4r	.	f
!!LO:LB:g=original	!	!
=5	=5	=5	=5
8E-\L 8e-	8g\L 8b- 8ee- 8gg	.	.
16E-\L 16e-	16g\L 16b- 16ee- 16gg	.	.
16E-\JJ 16e-	16g\JJ 16b- 16ee- 16gg	.	.
!	!LO:N:vis=8	!	!
8E-\L 8e-	16g\KL 16b- 16ee- 16gg	.	.
!	!LO:N:vis=8	!	!
.	16r	.	.
8D\J 8d	8g\J 8bn 8dd 8gg	.	.
=6	=6	=6	=6
8C\L 8c	8g\L 8cc 8ee- 8gg	.	.
16C\L 16c	16g\L 16cc 16ee- 16gg	.	.
16C\JJ 16c	16g\JJ 16cc 16ee- 16gg	.	.
8C\L 8c	8g\L 8cc 8ee- 8gg	.	.
8AA-\J 8A-	8a-\J 8cc 8ee- 8aa-	.	.
=7	=7	=7	=7
8BB-^^\L 8B-	8b-^^\L 8ee- 8gg 8bb-	.	.
8BB-\J 8B-	8b-\J 8ee- 8gg 8bb-	.	.
8BBB-^^/L 8BB-	8b-^^\L 8dd 8ff 8bb-	.	.
8BBB-/J 8BB-	8b-\J 8dd 8ff 8bb-	.	.
=8	=8	=8	=8
4EE-/ 4E-	4ee-\ 4gg 4bb- 4eee-	.	.
!	!LO:TX:b:t=Fine:mod=	!	!
4E-\ 4G 4B- 4e-	4g\ 4b- 4ee-	.	.
!!LO:TX:a:B:rj:t=:mod=Fine
!!LO:LB:g=original	!	!
==9	==9	==9	==9
*>B	*>B	*	*
8E-\L	8gg\L	.	.
16B-\L 16e-	16g\L 16b-	.	.
16B-\JJ 16e-	16g\JJ 16b-	.	.
8B-\L 8e-	8g\L 8b-	.	.
8B-\J 8e-	16ff\L	.	.
.	16ee-\JJ	.	.
=10	=10	=10	=10
8E-\L	4.b-\	.	.
8B-\ 8e-	.	.	.
8B-\ 8e-	.	.	.
*	*	*color:grey	*
!	!LO:TX:t=P:problem: palcowanie zapisane ołówkiem	!	!
8B-\J 8e-	16cc\LL	3	.
.	16dd\JJ	4	.
=11	=11	=11	=11
8E-\L	16ee-\LL	5	.
.	16b-\	2	.
8B-\ 8e-	16g\	1	.
.	16b-\JJ	2	.
8B-\ 8e-	16ee-\LL	3	.
.	16gg\	1	.
8B-\J 8e-	16ccc\	.	.
.	16bb-\JJ	.	.
=12	=12	=12	=12
!LO:TX:t=P:problem:mixed beam	!	!	!
8FF/L	4bb-\	.	.
8A-\ 8c 8f	.	.	.
8A-\ 8c 8f	4aa-\	.	.
8A-\J 8c 8f	.	.	.
!!LO:LB:g=original	!	!	!
=13	=13	=13	=13
!	!LO:MO:null:mod=!LO&colon;TX&colon;a&colon;i&colon;t=legato	!	!
!	!	!	!
8AA-\L	16ff\LL	.	.
!	!LO:TX:a:t=legato:mod=	!	!
.	16aa-\	.	.
8A-\ 8c 8f	16ddd\	5	.
.	16ccc\JJ	.	.
8A-\ 8c 8f	16bb-\LL	.	.
.	16aa-\	.	.
8A-\J 8c 8f	16gg\	.	.
.	16ff\JJ	3	.
=14	=14	=14	=14
!LO:TX:t=P:problem:mixed beam	!	!	!
8BB-/L	16ee-\LL	2	.
.	16gg\	1	.
8B-\ 8e- 8g	16fff\	.	.
.	16eee-\JJ	.	.
8B-\ 8e- 8g	16ccc\LL	.	.
.	16bb-\	.	.
8B-\J 8e- 8g	16gg\	.	.
.	16ee-\JJ	.	.
=15	=15	=15	=15
!LO:TX:t=P:problem:mixed beam	!	!	!
8BB-/L	16an\LL	.	.
.	16b-\	.	.
8A-\ 8B- 8d 8f	16bn\	.	.
.	16cc\JJ	.	.
8A-\ 8B- 8d 8f	16cc#X\LL	.	.
.	16dd\	.	.
8A-\J 8B- 8d 8f	16gg\	.	.
.	16ff\JJ	.	.
=16	=16	=16	=16
8E-\ 8e-	8g\ 8b- 8ee-	.	.
8r	16fff^^\LL	.	.
.	16eee-\JJ	.	.
4r	16fff^^\LL	.	.
.	16eee-\JJ	.	.
.	16fff^^\LL	.	.
.	16eee-\JJ	.	.
!!LO:LB:g=original	!	!	!
=17||	=17||	=17||	=17||
*k[b-e-a-d-]	*k[b-e-a-d-]	*	*
8AA-\ 8A-	8ff'\ 8fff	.	.
8E-\ 8A- 8c	8ee-'\ 8eee-	.	.
8E-\ 8A- 8c	8cc'\ 8ccc	.	.
8E-\ 8A- 8c	8a-'\ 8aa-	.	.
=18	=18	=18	=18
8EE-/ 8E-	4a-'\ 4aa-	.	.
8G\ 8d- 8e-	.	.	.
8G\ 8d- 8e-	8g'\ 8gg	.	.
8G\ 8d- 8e-	8r	.	.
=19	=19	=19	=19
8GG\ 8G	8b-'\ 8bb-	.	.
8E-\ 8B- 8d-	8cc'\ 8ccc	.	.
8E-\ 8B- 8d-	8dd'-\ 8ddd-	.	.
8E-\ 8B- 8d-	8ddn'\ 8dddn	.	.
=20	=20	=20	=20
8AA-\ 8A-	8ff'\ 8fff	.	.
8E-\ 8A- 8c	8ee-'\ 8eee-	.	.
8E-\ 8A- 8c	8bb-'\ 8bbb-	.	.
8E-\ 8A- 8c	8aa-'\ 8aaa-	.	.
!!LO:LB:g=original	!	!	!
=21	=21	=21	=21
8C\ 8c	8ff\ 8fff	.	f
8G\ 8B- 8c 8en	8een\ 8eeen	.	.
8G\ 8B- 8c 8e	8dd-\ 8ddd-	.	.
8G\ 8B- 8c 8e	8cc\ 8ccc	.	.
=22	=22	=22	=22
8FF\ 8F	8a-\ 8aa-	.	.
8A-\ 8c 8f	8cc\ 8ccc	.	.
8A-\ 8c 8f	8ff\ 8fff	.	.
8A-\ 8c 8f	[>8aa-\ [8aaa-	.	.
=23	=23	=23	=23
8E-\L	8aa-\] 8aaa-]	.	.
8A-\J 8c 8e-	8cc\ 8ccc	.	.
8E-\L	8ee-\ 8eee-	.	.
8G\J 8d- 8e-	8g\ 8gg	.	.
=24	=24	=24	=24
4A-^^\ 4c 4e-	4a-^^\ 4aa-	.	.
!	!LO:TX:b:t=D.C. al Fine:mod=	!	!
4r	4r	.	.
!!LO:TX:a:B:t=:mod=Da Capo al Fine
==	==	==	==
*-	*-	*-	*-
!!!system-decoration: {(*)}
!!!RDF**kern: > = above
!!!RDF**kern: < = below
!!!filter-modern: sic -sq | shed -e "s/TX(.*):t=P:/tx$1:t=P:/LG" | shed -k -e "s/[<>]//g" | shed -k -e "s/:TUP:/:tup:/L" | shed -e "s/LO:HP:(a|b|rj)/LO:hp:$1/L" | shed -k -e "s/LO:N:vis/LO:n:vis:/L" | shed -e "s/:rj/:RJ/L" | shed -e "s/^(\d+[\/\\]right)/$1yy/I;s/^(\d+[\/\\]left)/$1yy/I" | shed -e "s/LO:DY:(a|b|rj)/LO:dy:$1/L" | shed -e "s/-//B" | extract -s 1-2,4 | modori -m | tie -s | autostem -r | humtr -p
!!!ENC: Andrzej Gręziak
!!!END: 2023-07-25
!!!ENC: Jan Barakat
!!!END: 2023-07-26
!!!ENC-modern: Andrzej Borzym
!!!END-modern: 2023-07-28
